packages/bezier-icons/icons/email-filled.svg

<svg width="24" height="24" viewBox="0 0 24 24" fill="none" xmlns="http://www.w3.org/2000/svg">
<path fill-rule="evenodd" clip-rule="evenodd" d="M2.43597 6.18404C2 7.03969 2 8.15979 2 10.4V13.6C2 15.8402 2 16.9603 2.43597 17.816C2.81947 18.5686 3.43139 19.1805 4.18404 19.564C5.03969 20 6.15979 20 8.4 20H15.6C17.8402 20 18.9603 20 19.816 19.564C20.5686 19.1805 21.1805 18.5686 21.564 17.816C22 16.9603 22 15.8402 22 13.6V10.4C22 8.15979 22 7.03969 21.564 6.18404C21.1805 5.43139 20.5686 4.81947 19.816 4.43597C18.9603 4 17.8402 4 15.6 4H8.4C6.15979 4 5.03969 4 4.18404 4.43597C3.43139 4.81947 2.81947 5.43139 2.43597 6.18404ZM5.44722 9.60557C4.95324 9.35858 4.35257 9.55881 4.10558 10.0528C3.85859 10.5468 4.05881 11.1474 4.55279 11.3944L10.6584 14.4472C11.5029 14.8695 12.4971 14.8695 13.3416 14.4472L19.4472 11.3944C19.9412 11.1474 20.1414 10.5468 19.8944 10.0528C19.6474 9.55881 19.0468 9.35858 18.5528 9.60557L12.4472 12.6584C12.1657 12.7991 11.8343 12.7991 11.5528 12.6584L5.44722 9.60557Z" fill="#313234"/>
</svg>

<svg xmlns="http://www.w3.org/2000/svg" width="24" height="24" fill="none" viewBox="0 0 24 24"><path fill="#313234" fill-rule="evenodd" d="M2.436 6.184C2 7.04 2 8.16 2 10.4v3.2c0 2.24 0 3.36.436 4.216a4 4 0 0 0 1.748 1.748C5.04 20 6.16 20 8.4 20h7.2c2.24 0 3.36 0 4.216-.436a4 4 0 0 0 1.748-1.748C22 16.96 22 15.84 22 13.6v-3.2c0-2.24 0-3.36-.436-4.216a4 4 0 0 0-1.748-1.748C18.96 4 17.84 4 15.6 4H8.4c-2.24 0-3.36 0-4.216.436a4 4 0 0 0-1.748 1.748m3.011 3.422a1 1 0 0 0-.894 1.788l6.105 3.053a3 3 0 0 0 2.684 0l6.105-3.053a1 1 0 1 0-.894-1.788l-6.106 3.052a1 1 0 0 1-.894 0z" clip-rule="evenodd"/></svg>
